X:331
T: Peggy Bawne Jig
N: O'Farrell's Pocket Companion v.4 (Sky ed. p.145)
M: 6/8
L: 1/8
Q: 320
R: jig
K: G
B/A/|: G2G BAB| BAB BAB| G2G BAB| d2B ABc|
G2G BAB| BAB BAB| gfe dcB| ABA ABc :|
g2g gec| B2d dBG| g2g gec| B2c def| gag fdd|
ece def| gfe dcB| ABA ABc :|
